X: 10451
M: C|
L: 1/8
K: B
f2 |\
bfdB Aceg | fdec cBAG | FDEG FBdf | eFcB AGAF |\
|: f2 |\
f=efd bdfd | _edec gBcF | GBed cged | cdcB AFGA |\


